svgs/location.svg

<svg fill="none" height="24" viewBox="0 0 29 29" width="24" xmlns="http://www.w3.org/2000/svg">
    <path
        d="M14.5 2C18.4306 2 21.625 5.29333 21.625 9.36667C21.625 14.8886 14.5 23.0476 14.5 23.0476C14.5 23.0476 7.375 14.8886 7.375 9.36667C7.375 5.29333 10.5694 2 14.5 2ZM14.5 6.95238C13.8701 6.95238 13.266 7.21326 12.8206 7.67764C12.3752 8.14202 12.125 8.77185 12.125 9.42857C12.125 10.0853 12.3752 10.7151 12.8206 11.1795C13.266 11.6439 13.8701 11.9048 14.5 11.9048C15.1299 11.9048 15.734 11.6439 16.1794 11.1795C16.6248 10.7151 16.875 10.0853 16.875 9.42857C16.875 8.77185 16.6248 8.14202 16.1794 7.67764C15.734 7.21326 15.1299 6.95238 14.5 6.95238ZM24 23.0476C24 25.7838 19.7488 28 14.5 28C9.25125 28 5 25.7838 5 23.0476C5 21.4505 6.44875 20.0267 8.69313 19.1229L9.45312 20.2495C8.17062 20.8067 7.375 21.5743 7.375 22.4286C7.375 24.1371 10.5694 25.5238 14.5 25.5238C18.4306 25.5238 21.625 24.1371 21.625 22.4286C21.625 21.5743 20.8294 20.8067 19.5469 20.2495L20.3069 19.1229C22.5512 20.0267 24 21.4505 24 23.0476Z"
        fill="#fff" />
</svg>

<svg height="24" viewBox="0 0 29 29" width="24" xmlns="http://www.w3.org/2000/svg">
    <path fill="#fff"
        d="M14.5 2c3.93 0 7.125 3.293 7.125 7.367 0 5.522-7.125 13.68-7.125 13.68S7.375 14.89 7.375 9.368C7.375 5.293 10.569 2 14.5 2Zm0 4.952c-.63 0-1.234.261-1.68.726a2.53 2.53 0 0 0-.695 1.75c0 .657.25 1.287.696 1.752.445.464 1.05.725 1.679.725.63 0 1.234-.261 1.68-.725a2.53 2.53 0 0 0 .695-1.751 2.53 2.53 0 0 0-.696-1.751 2.327 2.327 0 0 0-1.679-.726ZM24 23.048C24 25.784 19.749 28 14.5 28S5 25.784 5 23.048c0-1.597 1.449-3.021 3.693-3.925l.76 1.127c-1.282.557-2.078 1.324-2.078 2.179 0 1.708 3.194 3.095 7.125 3.095 3.93 0 7.125-1.387 7.125-3.095 0-.855-.796-1.622-2.078-2.18l.76-1.126C22.55 20.027 24 21.45 24 23.048Z" />
</svg>
